blog/demystifying-the-load-balancing-in-istio/istio-resources.svg

<svg xmlns="http://www.w3.org/2000/svg" xmlns:xl="http://www.w3.org/1999/xlink" width="457" height="366" version="1.1" viewBox="-69 198 457 366"><defs><linearGradient id="Gradient" x1="0" x2="1" gradientUnits="userSpaceOnUse"><stop offset="0" stop-color="#4387fd"/><stop offset="1" stop-color="#4683ea"/></linearGradient><linearGradient id="Obj_Gradient" gradientTransform="translate(-3.811023 267.5381) scale(39.68504)" xl:href="#Gradient"/><marker id="FilledArrow_Marker" stroke-linejoin="miter" stroke-miterlimit="10" color="#000" markerHeight="6" markerUnits="strokeWidth" markerWidth="7" orient="auto" overflow="visible" viewBox="-1 -3 7 6"><g><path fill="currentColor" stroke="currentColor" stroke-width="1" d="M 4.8 0 L 0 -1.8 L 0 1.8 Z"/></g></marker></defs><g id="istio-resources" fill="none" fill-opacity="1" stroke="none" stroke-dasharray="none" stroke-opacity="1"><title>istio-resources</title><rect width="457" height="366" x="-69" y="198" fill="#fff"/><g id="istio-resources_Layer_1"><title>Layer 1</title><g id="Graphic_9"><path stroke="gray" stroke-dasharray="1 4" stroke-linecap="round" stroke-linejoin="round" stroke-width="1" d="M -52 212 L 371.77953 212 L 371.77953 550.3478 L -52 550.3478 Z"/><text fill="#a5a5a5" transform="translate(-47 525.8837)"><tspan x="157.122" y="16" fill="#a5a5a5" font-family="Helvetica Neue" font-size="16" font-weight="bold">Tier 1 cluster</tspan></text></g><g id="Graphic_8"><path fill="#ccc" d="M -4.3149603 244.01066 L 319.8425 244.01066 C 324.2608 244.01066 327.8425 247.59238 327.8425 252.01066 L 327.8425 499.6327 C 327.8425 504.051 324.2608 507.6327 319.8425 507.6327 L -4.3149603 507.6327 C -8.733238 507.6327 -12.31496 504.051 -12.31496 499.6327 L -12.31496 252.01066 C -12.31496 247.59238 -8.733238 244.01066 -4.3149603 244.01066 Z"/><text fill="#000" transform="translate(-7.31496 249.01066)"><tspan x="74.231" y="16" fill="#000" font-family="Helvetica Neue" font-size="16">gke-jimmy-us-central1-1</tspan></text></g><g id="Graphic_7"><path fill="#fff" d="M 46.6904 298.1686 L 141 298.1686 C 145.41828 298.1686 149 301.75032 149 306.1686 L 149 333.5 C 149 337.91828 145.41828 341.5 141 341.5 L 46.6904 341.5 C 42.27212 341.5 38.6904 337.91828 38.6904 333.5 L 38.6904 306.1686 C 38.6904 301.75032 42.27212 298.1686 46.6904 298.1686 Z"/><path stroke="gray" stroke-linecap="round" stroke-linejoin="round" stroke-width="1" d="M 46.6904 298.1686 L 141 298.1686 C 145.41828 298.1686 149 301.75032 149 306.1686 L 149 333.5 C 149 337.91828 145.41828 341.5 141 341.5 L 46.6904 341.5 C 42.27212 341.5 38.6904 337.91828 38.6904 333.5 L 38.6904 306.1686 C 38.6904 301.75032 42.27212 298.1686 46.6904 298.1686 Z"/><text fill="#000" transform="translate(43.6904 310.6103)"><tspan x="18.611" y="15" fill="#000" font-family="Helvetica Neue" font-size="16">Gateway</tspan></text></g><g id="Group_4"><g id="Graphic_6"><path fill="url(#Obj_Gradient)" d="M 4.8051933 283.41845 L -3.3334038 269.32085 C -3.9702296 268.21772 -3.9702296 266.8588 -3.3334038 265.75568 L 4.8051933 251.65808 C 5.442019 250.55495 6.618938 249.87534 7.8929 249.87534 L 24.170094 249.87534 C 25.443745 249.87534 26.620664 250.55495 27.2578 251.65808 L 35.396397 265.75568 C 36.033223 266.8588 36.033223 268.21772 35.396397 269.32085 L 27.2578 283.41845 C 26.620974 284.52158 25.444056 285.20088 24.170094 285.20088 L 7.8929 285.20088 C 6.619248 285.20088 5.442329 284.52127 4.8055034 283.41845"/></g><g id="Graphic_5"><path fill="#fff" d="M 23.791843 262.57527 L 16.451293 258.337 C 16.192408 258.18756 15.873375 258.18756 15.61449 258.337 L 8.273941 262.57527 C 8.015056 262.7247 7.855695 263.00096 7.855695 263.29984 L 7.855695 271.77607 C 7.855695 272.07495 8.015056 272.3512 8.273941 272.50064 L 15.61449 276.7389 C 15.873375 276.88835 16.192408 276.88835 16.451293 276.7389 L 23.791843 272.50064 C 24.050728 272.3512 24.21009 272.07495 24.21009 271.77607 L 24.21009 263.29984 C 24.21009 263.00096 24.050728 262.7247 23.791843 262.57527 M 22.784827 270.965 L 20.223882 269.4864 L 20.223882 265.59136 L 16.441992 267.77405 L 16.441992 272.14254 L 19.814937 270.19517 L 22.375882 271.67376 L 16.032737 275.33597 L 9.689592 271.67376 L 12.250537 270.19517 L 15.623792 272.14254 L 15.623792 267.77405 L 11.841902 265.59136 L 11.841902 269.4864 L 9.280957 270.965 L 9.280957 263.64058 L 15.624102 259.97836 L 15.624102 262.93554 L 12.250847 264.8829 L 16.032737 267.0656 L 19.814627 264.8829 L 16.441682 262.93554 L 16.441682 259.97836 L 22.784827 263.64058 L 22.784827 270.965"/></g></g><g id="Graphic_3"><path fill="#466bb0" d="M -.5454808 494.6524 L 32.608474 494.6524 L 11.892518 500.8661 Z M -.5454808 492.5776 L 11.892518 490.5029 L 11.892518 467.71216 Z M 13.956742 490.5029 L 32.608474 492.5776 L 13.956742 451.1352 Z"/></g><g id="Graphic_2"><text fill="#000" transform="translate(125.66576 483.1686)"><tspan x="0" y="16" fill="#000" font-family="Helvetica Neue" font-size="16" font-weight="bold">Cluster 0</tspan></text></g><g id="Graphic_10"><path fill="#fff" d="M 46.6904 379 L 141 379 C 145.41828 379 149 382.5817 149 387 L 149 414.3314 C 149 418.7497 145.41828 422.3314 141 422.3314 L 46.6904 422.3314 C 42.27212 422.3314 38.6904 418.7497 38.6904 414.3314 L 38.6904 387 C 38.6904 382.5817 42.27212 379 46.6904 379 Z"/><path stroke="gray" stroke-linecap="round" stroke-linejoin="round" stroke-width="1" d="M 46.6904 379 L 141 379 C 145.41828 379 149 382.5817 149 387 L 149 414.3314 C 149 418.7497 145.41828 422.3314 141 422.3314 L 46.6904 422.3314 C 42.27212 422.3314 38.6904 418.7497 38.6904 414.3314 L 38.6904 387 C 38.6904 382.5817 42.27212 379 46.6904 379 Z"/><text fill="#000" transform="translate(43.6904 391.4417)"><tspan x="1.419" y="15" fill="#000" font-family="Helvetica Neue" font-size="16">VirtualService</tspan></text></g><g id="Graphic_11"><path fill="#fff" d="M 197.5 298.1686 L 306 298.1686 C 310.41828 298.1686 314 301.75032 314 306.1686 L 314 333.5 C 314 337.91828 310.41828 341.5 306 341.5 L 197.5 341.5 C 193.08172 341.5 189.5 337.91828 189.5 333.5 L 189.5 306.1686 C 189.5 301.75032 193.08172 298.1686 197.5 298.1686 Z"/><path stroke="gray" stroke-linecap="round" stroke-linejoin="round" stroke-width="1" d="M 197.5 298.1686 L 306 298.1686 C 310.41828 298.1686 314 301.75032 314 306.1686 L 314 333.5 C 314 337.91828 310.41828 341.5 306 341.5 L 197.5 341.5 C 193.08172 341.5 189.5 337.91828 189.5 333.5 L 189.5 306.1686 C 189.5 301.75032 193.08172 298.1686 197.5 298.1686 Z"/><text fill="#000" transform="translate(194.5 310.6103)"><tspan x=".946" y="15" fill="#000" font-family="Helvetica Neue" font-size="16">DestinationRule</tspan></text></g><g id="Graphic_12"><path fill="#fff" d="M 197.5 379 L 306 379 C 310.41828 379 314 382.5817 314 387 L 314 414.3314 C 314 418.7497 310.41828 422.3314 306 422.3314 L 197.5 422.3314 C 193.08172 422.3314 189.5 418.7497 189.5 414.3314 L 189.5 387 C 189.5 382.5817 193.08172 379 197.5 379 Z"/><path stroke="gray" stroke-linecap="round" stroke-linejoin="round" stroke-width="1" d="M 197.5 379 L 306 379 C 310.41828 379 314 382.5817 314 387 L 314 414.3314 C 314 418.7497 310.41828 422.3314 306 422.3314 L 197.5 422.3314 C 193.08172 422.3314 189.5 418.7497 189.5 414.3314 L 189.5 387 C 189.5 382.5817 193.08172 379 197.5 379 Z"/><text fill="#000" transform="translate(194.5 391.4417)"><tspan x="12.218" y="15" fill="#000" font-family="Helvetica Neue" font-size="16">ServiceEntry</tspan></text></g><g id="Line_13"><line x1="93.845" x2="93.845" y1="341.5" y2="366.1" stroke="#000" stroke-linecap="round" stroke-linejoin="round" stroke-width="2" marker-end="url(#FilledArrow_Marker)"/></g><g id="Line_14"><line x1="136.169" x2="197.943" y1="379" y2="347.378" stroke="#000" stroke-linecap="round" stroke-linejoin="round" stroke-width="2" marker-end="url(#FilledArrow_Marker)"/></g><g id="Line_15"><line x1="251.75" x2="251.75" y1="341.5" y2="366.1" stroke="#000" stroke-linecap="round" stroke-linejoin="round" stroke-width="2" marker-end="url(#FilledArrow_Marker)"/></g></g></g></svg>

<svg xmlns="http://www.w3.org/2000/svg" xmlns:xl="http://www.w3.org/1999/xlink" width="457" height="366" viewBox="-69 198 457 366"><defs><linearGradient id="a" x1="0" x2="1" gradientUnits="userSpaceOnUse"><stop offset="0" stop-color="#4387fd"/><stop offset="1" stop-color="#4683ea"/></linearGradient><linearGradient xl:href="#a" id="b" gradientTransform="translate(-3.811 267.538)scale(39.68504)"/><marker id="c" stroke-linejoin="miter" stroke-miterlimit="10" color="#000" markerHeight="6" markerUnits="strokeWidth" markerWidth="7" orient="auto" overflow="visible" viewBox="-1 -3 7 6"><path fill="currentColor" stroke="currentColor" d="M4.8 0 0-1.8v3.6Z"/></marker></defs><g fill="none"><path fill="#fff" d="M-69 198h457v366H-69z"/><path stroke="gray" stroke-dasharray="1 4" stroke-linecap="round" stroke-linejoin="round" d="M-52 212h423.78v338.348H-52Z"/><text fill="#a5a5a5" transform="translate(-47 525.884)"><tspan x="157.122" y="16" font-family="Helvetica Neue" font-size="16" font-weight="bold">Tier 1 cluster</tspan></text><path fill="#ccc" d="M-4.315 244.01h324.157a8 8 0 0 1 8 8v247.623a8 8 0 0 1-8 8H-4.315a8 8 0 0 1-8-8V252.01a8 8 0 0 1 8-8"/><text fill="#000" transform="translate(-7.315 249.01)"><tspan x="74.231" y="16" font-family="Helvetica Neue" font-size="16">gke-jimmy-us-central1-1</tspan></text><path fill="#fff" d="M46.69 298.169H141a8 8 0 0 1 8 8V333.5a8 8 0 0 1-8 8H46.69a8 8 0 0 1-8-8v-27.331a8 8 0 0 1 8-8"/><path stroke="gray" stroke-linecap="round" stroke-linejoin="round" d="M46.69 298.169H141a8 8 0 0 1 8 8V333.5a8 8 0 0 1-8 8H46.69a8 8 0 0 1-8-8v-27.331a8 8 0 0 1 8-8"/><text fill="#000" transform="translate(43.69 310.61)"><tspan x="18.611" y="15" font-family="Helvetica Neue" font-size="16">Gateway</tspan></text><path fill="url(#b)" d="m4.805 283.418-8.138-14.097a3.57 3.57 0 0 1 0-3.565l8.138-14.098a3.57 3.57 0 0 1 3.088-1.783H24.17c1.274 0 2.45.68 3.088 1.783l8.138 14.098a3.57 3.57 0 0 1 0 3.565l-8.138 14.097a3.57 3.57 0 0 1-3.088 1.783H7.893c-1.274 0-2.45-.68-3.087-1.783"/><path fill="#fff" d="m23.792 262.575-7.34-4.238a.84.84 0 0 0-.838 0l-7.34 4.238a.84.84 0 0 0-.418.725v8.476c0 .299.16.575.418.725l7.34 4.238c.26.15.578.15.837 0l7.34-4.238a.84.84 0 0 0 .42-.725V263.3a.84.84 0 0 0-.42-.725m-1.006 8.39-2.561-1.479v-3.895l-3.782 2.183v4.369l3.373-1.948 2.56 1.479-6.342 3.662-6.343-3.662 2.56-1.479 3.374 1.948v-4.369l-3.782-2.183v3.895l-2.561 1.479v-7.324l6.343-3.663v2.958l-3.373 1.947 3.782 2.183 3.782-2.183-3.373-1.947v-2.958l6.343 3.663z"/><path fill="#466bb0" d="M-.545 494.652h33.153l-20.715 6.214Zm0-2.074 12.438-2.075v-22.79Zm14.502-2.075 18.651 2.075-18.651-41.443Z"/><text fill="#000" transform="translate(125.666 483.169)"><tspan x="0" y="16" font-family="Helvetica Neue" font-size="16" font-weight="bold">Cluster 0</tspan></text><path fill="#fff" d="M46.69 379H141a8 8 0 0 1 8 8v27.331a8 8 0 0 1-8 8H46.69a8 8 0 0 1-8-8V387a8 8 0 0 1 8-8"/><path stroke="gray" stroke-linecap="round" stroke-linejoin="round" d="M46.69 379H141a8 8 0 0 1 8 8v27.331a8 8 0 0 1-8 8H46.69a8 8 0 0 1-8-8V387a8 8 0 0 1 8-8"/><text fill="#000" transform="translate(43.69 391.442)"><tspan x="1.419" y="15" font-family="Helvetica Neue" font-size="16">VirtualService</tspan></text><path fill="#fff" d="M197.5 298.169H306a8 8 0 0 1 8 8V333.5a8 8 0 0 1-8 8H197.5a8 8 0 0 1-8-8v-27.331a8 8 0 0 1 8-8"/><path stroke="gray" stroke-linecap="round" stroke-linejoin="round" d="M197.5 298.169H306a8 8 0 0 1 8 8V333.5a8 8 0 0 1-8 8H197.5a8 8 0 0 1-8-8v-27.331a8 8 0 0 1 8-8"/><text fill="#000" transform="translate(194.5 310.61)"><tspan x=".946" y="15" font-family="Helvetica Neue" font-size="16">DestinationRule</tspan></text><path fill="#fff" d="M197.5 379H306a8 8 0 0 1 8 8v27.331a8 8 0 0 1-8 8H197.5a8 8 0 0 1-8-8V387a8 8 0 0 1 8-8"/><path stroke="gray" stroke-linecap="round" stroke-linejoin="round" d="M197.5 379H306a8 8 0 0 1 8 8v27.331a8 8 0 0 1-8 8H197.5a8 8 0 0 1-8-8V387a8 8 0 0 1 8-8"/><text fill="#000" transform="translate(194.5 391.442)"><tspan x="12.218" y="15" font-family="Helvetica Neue" font-size="16">ServiceEntry</tspan></text><path stroke="#000" stroke-linecap="round" stroke-linejoin="round" stroke-width="2" marker-end="url(#c)" d="M93.845 341.5v24.6"/><path stroke="#000" stroke-linecap="round" stroke-linejoin="round" stroke-width="2" marker-end="url(#c)" d="m136.169 379 61.774-31.622"/><path stroke="#000" stroke-linecap="round" stroke-linejoin="round" stroke-width="2" marker-end="url(#c)" d="M251.75 341.5v24.6"/></g></svg>
